X: 20
T: Bayrischer Bauer [C]
T: Maderl
R: zweifacher
M: 32/44
L: 1/8
K: C
|: [GE][cG][ec] \
| "C"[g3e3] [fd] [e2c2] | [e2c2] [f2d2] [g2e2] \
| "F"[a4f4] | "G7"[d4B4] \
|    [f3d3] [ec] [d2B2] | [B2d2] [e2c2] [f2d2] \
| "C"[g4e4] | [e4c4] \
|    [cG][ec] [e2c2] [dB][cA] | "G7"[B4G4] [G2F2] |
|"G7"[dF][fA] [f2A2] [eG][dF] | "C"[c4E4] [e2G2] \
|    [e2c2] [g2e2] | "F"[f2d2] [a2c2] \
|"G7"[d2B2] [fd][ec] [d2B2] | "C"[e2c2] [g2e2] \
|    [c2G2] [e2c2] | "G7"[dB][ec] [f2d2] [B2F2] | "C"[c2E2] z :|
%%sep 2 1 500
